packages/core/src/svgs/vent.svg

<svg width="24" height="24" viewBox="0 0 24 24" fill="none" xmlns="http://www.w3.org/2000/svg">
<g clip-path="url(#clip0_31_20366)">
<path d="M0 0H24V24H0V0Z" fill="url(#paint0_linear_31_20366)"/>
<path d="M19.2858 6.85693L16.6758 15.8012C16.6115 16.0241 16.5472 16.2512 16.4744 16.4784C16.4401 16.5898 16.4058 16.7012 16.3629 16.8126C16.2269 17.1915 16.0149 17.5385 15.74 17.8326C15.4652 18.1266 15.1332 18.3614 14.7644 18.5226C14.3272 18.7026 13.8644 18.7798 13.3972 18.8141C12.9644 18.8484 12.4372 18.8569 12.0001 18.8569C11.5672 18.8569 11.0358 18.8484 10.6029 18.8141C10.1347 18.7899 9.67319 18.6916 9.23578 18.5226C8.86153 18.369 8.52492 18.1362 8.24901 17.8403C7.97309 17.5445 7.7644 17.1924 7.63721 16.8084C7.59436 16.7012 7.56007 16.5898 7.52578 16.4784C7.45293 16.2512 7.38864 16.0241 7.32436 15.8012L4.71436 6.85693C5.19436 6.87408 5.7815 6.89551 6.25721 6.94265C6.75864 6.98979 7.29436 7.07979 7.7615 7.29836C8.25864 7.53408 8.61864 7.88122 8.89293 8.36979C9.15864 8.84122 9.3215 9.38122 9.4715 9.89122C10.5644 13.5855 11.8544 17.7641 11.8544 17.7641H12.1458C12.1458 17.7641 13.4315 13.5941 14.5329 9.89122C14.6829 9.38122 14.8415 8.84122 15.1072 8.37408C15.358 7.90358 15.7552 7.52749 16.2386 7.30265C16.7101 7.07979 17.2458 6.99408 17.7386 6.94265C18.2229 6.89551 18.8015 6.87408 19.2858 6.85693Z" fill="#F0F3FA"/>
</g>
<defs>
<linearGradient id="paint0_linear_31_20366" x1="4.46571" y1="4.16143" x2="29.2071" y2="32.58" gradientUnits="userSpaceOnUse">
<stop stop-color="#1A1E21"/>
<stop offset="1" stop-color="#06060A"/>
</linearGradient>
<clipPath id="clip0_31_20366">
<rect width="24" height="24" fill="white"/>
</clipPath>
</defs>
</svg>

<svg xmlns="http://www.w3.org/2000/svg" width="24" height="24" fill="none" viewBox="0 0 24 24"><g clip-path="url(#a)"><path fill="url(#b)" d="M0 0h24v24H0z"/><path fill="#F0F3FA" d="m19.286 6.857-2.61 8.944q-.094.336-.202.677a5 5 0 0 1-.111.335 2.96 2.96 0 0 1-1.599 1.71c-.437.18-.9.257-1.367.291-.433.034-.96.043-1.397.043-.433 0-.964-.009-1.397-.043a4.4 4.4 0 0 1-1.367-.291 2.8 2.8 0 0 1-1.599-1.715 4 4 0 0 1-.111-.33c-.073-.227-.137-.454-.202-.677l-2.61-8.944c.48.017 1.068.039 1.543.086.502.047 1.037.137 1.505.355.497.236.857.583 1.13 1.072.267.471.43 1.011.58 1.521a818 818 0 0 0 2.382 7.873h.292s1.285-4.17 2.387-7.873c.15-.51.309-1.05.574-1.517.251-.47.648-.847 1.132-1.071.471-.223 1.007-.309 1.5-.36a27 27 0 0 1 1.547-.086"/></g><defs><linearGradient id="b" x1="4.466" x2="29.207" y1="4.161" y2="32.58" gradientUnits="userSpaceOnUse"><stop stop-color="#1A1E21"/><stop offset="1" stop-color="#06060A"/></linearGradient><clipPath id="a"><path fill="#fff" d="M0 0h24v24H0z"/></clipPath></defs></svg>
